X:1
T:Title
%%score { ( 1 3 ) | ( 2 4 ) }
L:1/8
Q:1/4=94
M:4/4
K:C
V:1 treble nm="Grand Piano"
V:3 treble 
V:2 bass 
V:4 bass 
V:1
 [EG]2 [CE][EG] [Ec][Fc] [Gc]2 | [Ac]2 [GB]A G4 | F2 DF BB B2 | A2 FG E4 | %4
w: Thoro~Harris * * * * *||||
 [EG]2 E[DG] [Cc][Dc] [Ec]2 | [Gc]2 [Gd][Gc] z2 E2 |[M:9/8] c2 B AAG c3 | %7
w: |||
[M:4/4] E2 F[B,D] C4[Q:1/4=93][Q:1/4=91][Q:1/4=90][Q:1/4=88][Q:1/4=87][Q:1/4=85][Q:1/4=84][Q:1/4=82][Q:1/4=81][Q:1/4=79][Q:1/4=78][Q:1/4=76][Q:1/4=75][Q:1/4=73][Q:1/4=72] |] %8
w: |
V:2
 [C,C]2 [C,G,][C,G,] [C,G,][D,G,] [E,C]2 | [F,C]2 [F,C][K:treble][A,CF] [CE]4 | %2
 [G,B,D]2 [G,B,][G,B,D] [G,DF][G,^CF] [G,DF]2 | [G,CF]2[K:bass] [G,B,D][G,B,] [C,G,C]4 | %4
 [C,C]2 [C,G,][C,G,] [A,,A,][A,,A,] [A,,A,]2 | z4 F2 z2 | %6
[M:9/8] [^F,A,_E]2 [F,A,E] [F,B,E][G,C=E][G,CE] [^G,C_E]3 |[M:4/4] [G,C]2 [G,D][G,,F,] [C,E,]4 |] %8
V:3
 x8 | x8 | x8 | x8 | x8 | z4 A4 |[M:9/8] x9 |[M:4/4] x8 |] %8
V:4
 x8 | x3[K:treble] x5 | x8 | x2[K:bass] x6 | x8 | [E,_B,]2 [E,B,][E,B,] [F,A,]4 |[M:9/8] x9 | %7
[M:4/4] x8 |] %8

